public/images/networks/ethereum.svg

<svg width="24" height="24" viewBox="0 0 24 24" fill="none" xmlns="http://www.w3.org/2000/svg">
<path d="M12 24C18.6274 24 24 18.6274 24 12C24 5.37258 18.6274 0 12 0C5.37258 0 0 5.37258 0 12C0 18.6274 5.37258 24 12 24Z" fill="#627EEA"/>
<path d="M23.5 12C23.5 18.3513 18.3513 23.5 12 23.5C5.64873 23.5 0.5 18.3513 0.5 12C0.5 5.64873 5.64873 0.5 12 0.5C18.3513 0.5 23.5 5.64873 23.5 12Z" stroke="black" stroke-opacity="0.097"/>
<path d="M11.9997 4V9.91456L16.9987 12.1484L11.9997 4Z" fill="white" fill-opacity="0.602"/>
<path d="M11.9997 4L7 12.1484L11.9997 9.91456V4Z" fill="white"/>
<path d="M11.9997 15.981V19.9999L17.0021 13.0791L11.9997 15.981Z" fill="white" fill-opacity="0.602"/>
<path d="M11.9997 19.9999V15.9804L7 13.0791L11.9997 19.9999Z" fill="white"/>
<path d="M11.9997 15.0511L16.9987 12.1485L11.9997 9.91602V15.0511Z" fill="white" fill-opacity="0.2"/>
<path d="M7 12.1485L11.9997 15.0511V9.91602L7 12.1485Z" fill="white" fill-opacity="0.602"/>
</svg>

<svg xmlns="http://www.w3.org/2000/svg" width="24" height="24" fill="none"><path fill="#627EEA" d="M12 24c6.627 0 12-5.373 12-12S18.627 0 12 0 0 5.373 0 12s5.373 12 12 12"/><path stroke="#000" stroke-opacity=".097" d="M23.5 12c0 6.351-5.149 11.5-11.5 11.5S.5 18.351.5 12 5.649.5 12 .5 23.5 5.649 23.5 12Z"/><path fill="#fff" fill-opacity=".602" d="M12 4v5.915l4.999 2.233z"/><path fill="#fff" d="m12 4-5 8.148 5-2.233z"/><path fill="#fff" fill-opacity=".602" d="M12 15.981V20l5.002-6.92z"/><path fill="#fff" d="M12 20v-4.02l-5-2.9z"/><path fill="#fff" fill-opacity=".2" d="m12 15.051 4.999-2.902-5-2.233z"/><path fill="#fff" fill-opacity=".602" d="m7 12.149 5 2.902V9.916z"/></svg>
